X:1
T:Cordova, 98.99 D
T:Cordova, 98.99 D
T:Hubert Platt Main, 1890
T:Public Domain Courtesy of the Cyber Hymnal™
C:Hubert Platt Main, 1890
Z:Public Domain
Z:Courtesy of the Cyber Hymnal™
%%score ( 1 2 ) ( 3 4 )
L:1/8
Q:1/4=130
M:6/4
K:Bb
V:1 treble 
V:2 treble 
V:3 bass 
V:4 bass 
V:1
 [DF]2 | [DF]4 [DB]2 [DB]4 [DB]2 | [Ec]3 [Fd] [Ec]2 [DB]4 [DB]2 | [Ge]4 [Ge]2 [Fd]3 [Fc] [FB]2 | %4
 [Fd]6 [Fc]4 [EF]2 | [DF]4 [DB]2 [DB]4 [DB]2 | [=EB]3 [Ec] [GB]2 [FA]4 [Fc]2 | %7
 [Fc]3 [FB] [FA]2 [FA]3 [=EG] F2 | [=EG]6 F4 z2 | [Ec]3 [Fd] [Ec]2 [DB]4 F2 | %10
 [Ae]3 [Af] [Ae]2 [Bd]4 z2 | [Bd]3 [Fc] [FB]2 [Ff]3 [Fe] [Fd]2 | [Fd]6 [Fc]4 [EF]2 | %13
 [DF]4 [DB]2 [DB]4 [DB]2 | [Ec]3 [Fd] [Ec]2 [DB]4 [Ge]2 | [Fd]3 [Ec] [DB]2 [FB]3 [EA] [DB]2 | %16
 [Ec]6 [DB]4 |] %17
V:2
 x2 | x12 | x12 | x12 | x12 | x12 | x12 | x10 F2 | x6 F4 x2 | x10 F2 | x12 | x12 | x12 | x12 | %14
 x12 | x12 | x10 |] %17
V:3
 [B,,B,]2 | [B,,B,]4 [B,,F,]2 [B,,F,]4 [B,,F,]2 | [F,A,]3 [F,A,] [F,A,]2 [B,,B,]4 B,2 | %3
 B,4 B,2 [B,,B,]3 [C,A,] [D,B,]2 | [F,B,]6 [F,A,]4 [F,A,]2 | [B,,B,]4 [B,,F,]2 [B,,F,]4 [B,,B,]2 | %6
 [C,G,]3 [C,G,] [C,C]2 [F,C]4 [F,A,]2 | [F,A,]3 [F,D] [F,C]2 [C,C]3 [C,B,] [C,A,]2 | %8
 [C,B,]6 [F,A,]4 z2 | [F,A,]3 [F,A,] [F,A,]2 [B,,B,]4 [D,B,]2 | [F,C]3 [F,C] [F,C]2 B,4 z2 | %11
 [B,F]3 [B,E] [B,D]2 [D,B,]3 [C,A,] [B,,B,]2 | [F,A,]6 [F,A,]4 [F,A,]2 | %13
 [B,,B,]4 [B,,F,]2 [B,,F,]4 [B,,B,]2 | [F,A,]3 [F,A,] [F,A,]2 [G,B,]4 [E,B,]2 | %15
 [F,B,]3 F, F,2 [F,D]3 [F,C] [F,B,]2 | [F,A,]6 [B,,B,]4 |] %17
V:4
 x2 | x12 | x10 B,2 | B,4 B,2 x6 | x12 | x12 | x12 | x12 | x12 | x12 | x6 B,4 x2 | x12 | x12 | %13
 x12 | x12 | x3 F, F,2 x6 | x10 |] %17

